src/assets/icons/suprematist-dark.svg

<svg xmlns="http://www.w3.org/2000/svg" viewBox="0 0 20 20" width="20" height="20">
	<path fill="white" fill-rule="evenodd" clip-rule="evenodd" d="M2.92593 2.93194C1.11805 4.74135 0 7.24011 0 10C0 12.7599 1.11805 15.2587 2.92593 17.0681L2.92893 17.0711C4.73858 18.8807 7.23858 20 10 20C12.7599 20 15.2587 18.882 17.0681 17.0741L17.0741 17.0681C18.882 15.2587 20 12.7599 20 10C20 7.23858 18.8807 4.73858 17.0711 2.92893C15.2614 1.11929 12.7614 0 10 0C7.24011 0 4.74135 1.11805 2.93194 2.92593L2.92593 2.93194ZM3.48148 2.92593C3.17466 2.92593 2.92593 3.17466 2.92593 3.48148V16.5185C2.92593 16.8253 3.17466 17.0741 3.48148 17.0741H16.5185C16.8253 17.0741 17.0741 16.8253 17.0741 16.5185V3.48148C17.0741 3.17466 16.8253 2.92593 16.5185 2.92593H3.48148Z" />
</svg>

<svg xmlns="http://www.w3.org/2000/svg" width="20" height="20"><path fill="#fff" fill-rule="evenodd" d="M2.926 2.932A9.97 9.97 0 0 0 0 10a9.97 9.97 0 0 0 2.926 7.068l.003.003A9.97 9.97 0 0 0 10 20a9.97 9.97 0 0 0 7.068-2.926l.006-.006A9.97 9.97 0 0 0 20 10a9.97 9.97 0 0 0-2.929-7.071A9.97 9.97 0 0 0 10 0a9.97 9.97 0 0 0-7.068 2.926zm.555-.006a.556.556 0 0 0-.555.555V16.52c0 .306.249.555.555.555H16.52a.556.556 0 0 0 .555-.556V3.481a.556.556 0 0 0-.556-.555z" clip-rule="evenodd"/></svg>
